X: 1730
T: Seni Sevdim Seveli Kanaryam
C: ?
O: Turkey
F: http://compmusic.upf.edu/node/140
N: hicaz--turku--nimsofyan--seni_sevdim--istanbul
N: makam= hicaz
N: form= turku
N: usul= nimsofyan = 2/4
M: 2/4
L: 1/16
K: C _7/8B ^f ^c 
Q: 1/4=72
%%MIDI tuningsystem comma53
z2^3/4cd e2dc  | z2B^3/4c d2cB  | AGAB ^3/4cd{e}dc  | \
w:   |   |   | 
^3/4cBAB c2BA  | 
w:   | 
z2^3/4cd e2dc  | z2B^3/4c d2cB  | AGAB ^3/4cd{e}dc  | \
w:   |   |   | 
^3/4cBBA A4  | 
w:   | 
z2^3/4cd e2dc  | z2B^3/4c d2cB  | AGAB ^3/4cd{e}dc  | \
w:   |   |   | 
^3/4cBAB c2BA  | 
w:   | 
z2^3/4cd e2dc  | z2B^3/4c d2cB  | AGAB ^3/4cd{e}dc  | \
w:   |   |   | 
^3/4cBBA A4  | 
w:   | 
z2GA A2B2  | ^3/4c2d2 cBAG  | d6^3/4cd  | \
w:  Se ni  sev dim   |  se *  ve  |  li  ka  | 
e2{=f}ed ^3/4cBAB  | 
w:  nar *  *  *  yam    | 
d2d^3/4c B2AB  | ^3/4c3d cBBA  | A6^3/4cd  | \
w:  Ol dum  *  gö nül   |  ve *  re  |  mi  ka  | 
e2{=f}ed ^3/4cBAB  | 
w:  nar *  *  *  yam    | 
d2d^3/4c B2AB  | ^3/4c3d cBBA  | A6ed  | \
w:  Ol dum  *  gö nül   |  ve *  re  |  mi   SAZ  | 
^3/4cBBA A4  | z2GA A2B2  | 
w:   |  Al_ e li ne   | 
^3/4c2d2 cBAG  | d6^3/4cd  | e2{=f}ed ^3/4cBAB  | \
w:  ka *  le  |  mi  ka  |  nar *  *  *  yam    | 
d2d^3/4c B2AB  | 
w:  Yaz  ba *  şı na   | 
^3/4c3d cBBA  | A6^3/4cd  | e2{=f}ed ^3/4cBAB  | \
w:  ge *  le  |  ni  ka  |  nar *  *  *  yam    | 
d2d^3/4c B2AB  | 
w:  Yaz  ba *  şı na   | 
^3/4c3d cBBA  | A6ed  | ^3/4cBBA A4  | z2^3/4cd e2dc  | \
w:  ge *  le  |  ni  SAZ  |   |   | 
z2B^3/4c d2cB  | 
w:   | 
AGAB ^3/4cd{e}dc  | ^3/4cBAB c2BA  | \
w:   |   | 
z2^3/4cd e2dc  | 
w:   | 
z2B^3/4c d2cB  | AGAB ^3/4cd{e}dc  | \
w:   |   | 
^3/4cBBA A4  | z2^3/4cd e2dc  | 
w:   |   | 
z2B^3/4c d2cB  | AGAB ^3/4cd{e}dc  | \
w:   |   | 
^3/4cBAB c2BA  | 
w:   | 
z2^3/4cd e2dc  | z2B^3/4c d2cB  | AGAB ^3/4cd{e}dc  | \
w:   |   |   | 
^3/4cBBA A4  | 
w:   | 
z2GA A2B2  | ^3/4c2d2 cBAG  | d6^3/4cd  | \
w:  Se ni  sev dim   |  se *  ve  |  li  ka  | 
e2{=f}ed ^3/4cBAB  | 
w:  nar *  *  *  yam    | 
d2d^3/4c B2AB  | ^3/4c3d cBBA  | A6^3/4cd  | \
w:  Ol dum  *  gö nül   |  ve *  re  |  mi  ka  | 
e2{=f}ed ^3/4cBAB  | 
w:  nar *  *  *  yam    | 
d2d^3/4c B2AB  | ^3/4c3d cBBA  | A6ed  | \
w:  Ol dum  *  gö nül   |  ve *  re  |  mi   SAZ  | 
^3/4cBBA A4  | z2GA A2B2  | 
w:   |  Al_ e li ne   | 
^3/4c2d2 cBAG  | d6^3/4cd  | e2{=f}ed ^3/4cBAB  | \
w:  ka *  le  |  mi  ka  |  nar *  *  *  yam    | 
d2d^3/4c B2AB  | 
w:  Yaz  ba *  şı na   | 
^3/4c3d cBBA  | A6^3/4cd  | e2{=f}ed ^3/4cBAB  | \
w:  ge *  le  |  ni  ka  |  nar *  *  *  yam    | 
d2d^3/4c B2AB  | 
w:  Yaz  ba *  şı na   | 
^3/4c3d cBBA  | A6ed  | ^3/4cBBA A4  | |


